X:1
T:He Is Speaking to You
T:Lumir Josef Ringsmuth, 1915
T:He Is Speaking to You
T:Public Domain
T:Public Domain
C:Lumir Josef Ringsmuth, 1915
Z:Public Domain
%%score ( 1 2 ) ( 3 4 )
L:1/8
M:4/4
K:Bb
V:1 treble 
V:2 treble 
V:3 bass 
V:4 bass 
V:1
 [Fd][Ec] | [DB]2 [DA][DB] F2 =F>^F | [EG]2 [EA][DB] [Fc]2 AA | B2 AG e2 dc | d2 ed [Fc]2 FF | %5
w: 1.~Do you|think of the Lord in the|grace? When He smiles from His|you see His kind face? When|toils and the cares of this|
w: 2.~Do you|pray to the Lord when He|path? When He shows you your|you fear not His wrath? And|says, “Turn to Me, I am|
w: 3.~Do you|hark to His voice when he|Me! I will cleanse and for-|your sins you’ll be free”; You|sing and be kind and to|
 f2 ff =e2 ee | e2 fe d2 dd | c2 Gc B2 cd | [Ge]<[EG] [EA]2 [DB]4 || %9
w: few, Do you stop in your|is speak- ing to you. *|||
w: true”; Do you pray and re-|He speaks thus to you? Je-|speak- ing, is speak- ing to-|up the stand- ard|
w: true, If you’ll hark to His|He’s speak- ing to you. *|||
[M:3/4]"^Refrain" [DF]2 [DG]2 [DA]2 | [DB] [Fd]3 [Ec]2 | [DB]2 [DA]2 [DG]2 | [CE]6 | %13
w: ||||
w: and put sin|a- way; Quit|ye like brave|men,|
w: ||||
 [CE]2 [CF]2 [EG]2 | [EA] [FGe]3 [FAd]2 | [Ec]2 [DB]2 [^CG]2 | [DF]4 z2 | [DF]2 [DG]2 [EA]2 | %18
w: |||||
w: and rise in|your might; Je-|sus is speak-|ing|to- day. *|
w: |||||
 [DB] [Fd]3 [Fd]2 | g2 g2 [Gf]2 | [^CG]6 | [DF]2 [Fe]2 [Fd]2 | [Fd] [Fd]3 [Ec]2 | DF =E2 _E2 | %24
w: ||||||
w: ||||||
w: ||||||
 [DB]4 |] %25
w: |
w: |
w: |
V:2
 x2 | x4 ^F2 ^F>F | x6 AA | F8 | F4 FF x2 | F4 G4 | F4 F4 | E4 F4 | x8 ||[M:3/4] x6 | x6 | x6 | %12
w: |days of His|throne do|the|life are but|joy? He|||||||
w: |stands in your|sins, do|He|love, I am|pent, when|sus is|day; Raise|||||
w: |calls, “Fol- low|give, from|shall|God al- ways|voice, when|||||||
 x6 | x6 | x6 | x6 | x6 | x6 | x6 | G4 x2 | x6 | x6 | x6 | B6- | x4 |] %25
w: |||||||||||||
w: |||||||||||||
w: |||||||||||||
V:3
 [B,,-B,]2 | [B,,F,]4 [D,B,]4 | [E,B,]2 (C,B,,) F,3 E, | [D,B,]4 C,2 F,2 | %4
 B,2 [A,C]B, [D,B,]3 [F,A,] | D,4 _D,4 | [C,A,]4 [B,,B,]4 | G,2 CG, [D,B,]2 [F,A,]B, | %8
 [E,B,]2 F,2 [B,,F,]4 ||[M:3/4] [B,,B,]6 | F, B,3 z2 | F,4 B,2 | [F,A,]6 | [F,A,]6 | F,6- | %15
 F,4 (=E,G,) | [B,,B,]4 z2 | [B,,B,]6 | F, B,3 B,2 | [G,=B,]4 [G,B,]2 | [=E,G,B,]6 | %21
 [F,B,]2 [A,C]2 B,2 | [F,B,]4 F,2 | F,_A, G,2 _G,2 | [B,,F,]4 |] %25
V:4
 x2 | x8 | x2 F,2 A,4 | x4 A,4 | x8 | B,8 | x8 | E,4 x4 | x8 ||[M:3/4] x6 | B,,4 x2 | B,,6 | x6 | %13
 x6 | x6 | B,,6 | x6 | x6 | B,,4 x2 | x6 | x6 | x4 B,2 | x6 | B,,6- | x4 |] %25

